X:52
T:O'Connor Donn's
R:reel
M:4/4
L:1/8
K:Gmaj
|: B2 AG dGBA | GABG A2 AG | FADF Adag | fdcA GFGA |
B2 AG dGBA | GABG A2 AG | FADF Adag | fdcA G4 :|
|: faaf dafa | afdf af d2 | faaf dffd | egfa g2 ag |
fada fada | faaf af d2 | faab c'bag | fgaf g4 :|

